X:2107
T:Tachum Scales
O:Kevin Fraser
Z:Kevin Fraser
Q:1/4=90
K:HP
M:4/4
L:1/4
R:March
V:gstem=up stem=down
%%MIDI gracedivider 40
%%MIDI beatstring
% %barsperscore 3
%%landscape
[| G {gcd}c/<{e}A/  A  {gcd}c/<{e}A/ | B  {gcd}c/<{e}A/  c  {gcd}c/<{e}A/  | d    {gcd}c/<{e}A/  e  {gcd}c/<{e}A/  | f    {gcd}c/<{e}A/  g   {acd}c/<{e}A/ | a {cd}c/<{e}A/   a {cd}c/<{e}A/ | 
  g{acd}c/<{e}A/ f    {gcd}c/<{e}A/  | e  {gcd}c/<{e}A/ d    {gcd}c/<{e}A/ | c  {gcd}c/<{e}A/  B  {gcd}c/<{e}A/ | A  {gcd}c/<{e}A/ G {gcd}c/<{e}A/ |] $
[| G {gBd}B/<{e}G/  A  {gBd}B/<{e}G/ | B  {gBd}B/<{e}G/  c  {gBd}B/<{e}G/  | d    {gBd}B/<{e}G/  e  {gBd}B/<{e}G/  | f    {gBd}B/<{e}G/  g  {aBd}B/<{e}G/ | a {Bd}B/<{e}G/   a {Bd}B/<{e}G/ | 
  g {aBd}B/<{e}G/    {gBd}B/<{e}G/  | e  {gBd}B/<{e}G/ d    {gBd}B/<{e}G/ | c  {gBd}B/<{e}G/  B  {gBd}B/<{e}G/ | A  {gBd}B/<{e}G/ G {gBd}B/<{e}G/ |]
[| G {g}c/<{d}A/  A  {g}c/<{d}A/ | B  {g}c/<{d}A/  c  {g}c/<{d}A/  | d    {g}c/<{d}A/  e  {g}c/<{d}A/  | f    {g}c/<{d}A/  g   {a}c/<{d}A/ | a {}c/<{d}A/   a {}c/<{d}A/ | 
  g{a}c/<{d}A/ f    {g}c/<{d}A/  | e  {g}c/<{d}A/ d    {g}c/<{d}A/ | c  {g}c/<{d}A/  B  {g}c/<{d}A/ | A  {g}c/<{d}A/ G {g}c/<{d}A/ |] $
[| G {g}B/<{d}G/  A  {g}B/<{d}G/ | B  {g}B/<{d}G/  c  {g}B/<{d}G/  | d    {g}B/<{d}G/  e  {g}B/<{d}G/  | f    {g}B/<{d}G/  g  {a}B/<{d}G/ | a {}B/<{d}G/   a {}B/<{d}G/ | 
  g {a}B/<{d}G/    {g}B/<{d}G/  | e  {g}B/<{d}G/ d    {g}B/<{d}G/ | c  {g}B/<{d}G/  B  {g}B/<{d}G/ | A  {g}B/<{d}G/ G {g}B/<{d}G/ |]


